X:13865
T:Rabilada
C:Tradicional
S:Msica Tradicional Asturiana, (C) Tello & Tito. Asturies, 2001.
S:http://pagina.de/MusTradAst <telloytito@asturies.org>
A:Asturies
Z:Curdin
M:2/4
L:1/4
Q:2/4=100
K:F
|:CF|Fc|cG|A3/2G/|F2|AA|
FF|DD|E3/2D/|C2 :|
|:A/B/A/B/|AF|
A/B/A/B/|AF|
A/B/A/B/|AF|G2|G2|
|[1 A/B/A/B/|AF|A/B/A/B/|AF|
A/B/A/B/|G/A/G/A/|F2|F2:|[2 A/B/A/B/||
|AF|Ac|cG|AB|AG|F2|
